X: 395
U:~=!turn!
M:C
L:1/8
K:A minor
a !segno!| AAe>d ~B>d Te2 | dgB>g d<gB<G | AAe>d ~B<de>a | {/^f}g>e {/f}g>B {cB}A2 A{/^g}a |
^g| {^fg}a2 e>a c<a e>f | ~g2 d>g B>g d>g | {/^g}a2 e>a c>a e>a | {/^f}g>e{/f}g>B {cB}A2 A>^g|


